X: 1
T: The Butlers Of Glen Avenue
R: jig
M: 6/8
L: 1/8
K: Gmaj
|:DEG DEG| DEG B3 |DEG B3| dBA dBA|
DEG DEG| DEG B3|dBd gfe|dBA G3:|
|:gab age|deg B3|gab age| dBd e2d|
gab age|deg B3 |dBd gfe|dBa g3:|


Tune 820	Setting 26033

